X:875
T:Sunnyside
R:jig
D:Niall & Cillian Vallely: Callan Bridge
Z:transcribed by Dave Marshall
M:6/8
K:G
|: G2B BAG | D2B BAG | E2c cAE | FAd DEF |
G2B BAG | D2B BAG | E2c FAd | AGF G3 :|
|: ~B3 BAG | B2g gdB | c2g gdB | ~c3 ABc |
~B3 BAG | B2g gdB | ~c3 A2B | AGF G3 :|
